X:1
T:Title
%%score 1 2 3 4
L:1/8
M:4/4
K:D
V:1 treble nm="Violin, Staff"
V:2 bass nm="Viola, Staff-1"
V:3 bass nm="Cello, Staff-2"
V:4 bass nm="Contrabass, Staff-3"
V:1
 B,2 DE F2 F2 | B4 A2 FD | E2 F2 B,4 | d2 cB A2 ^G2 | c4 c2 F^G | A2 ^G2 F4- | F2 C2 D2 E2 | %7
w: By~Martin~Shaw,~1915 * * * *|||||||
 F2 A2 B3 A | F2 E2 F2 A2 | d2 A2 F4- | F2 E2 D4 |] %11
w: ||||
V:2
 F,2 D[K:treble]E F2 F2 | D2 E2 F2 DD | B,2 ^A,2 B,4 | F2 FF F2 =F2 | F2 A2 F2 DD | C2 =F2 C4- | %6
 C2 ^A,2 B,2 C2 | D2 C2 B,2 C2 | D2 A,2 D2 E2 | D2 C2 B,4 | C4 D4 |] %11
V:3
 B,,2 D,E, F,2 F,2 | B,2 C2 D2 A,F, | E,2 C,2 D,4 | B,2[K:treble] CD C2 C2 | C4 C2 C[K:bass]B, | %5
 F,2 ^G,2 ^A,4- | A,2 F,2 F,2 =A,2 | A,2 A,2 F,2 E,2 | F,2 A,2 A,2 A,2 | F,2 A,2 D4 | A,4 F,4 |] %11
V:4
 B,,2 D,E, F,2 F,2 | G,4 D,2 D,D, | G,,2 F,,2 B,,4 | B,2 A,B, C2 B,2 | A,2 F,2 D,2 B,,B,, | %5
 C,2 C,2 F,4- | F,2 F,,2 B,,2 A,,2 | D,2 F,2 D,2 C,2 | B,,2 C,2 D,2 C,2 | B,,2 F,,2 G,,4 | %10
 A,,4 D,4 |] %11

